icon/gr/linkedin.svg

<svg xmlns="http://www.w3.org/2000/svg" viewBox="0 0 24 24" height="1em" width="1em">
  <path fill="#0077B5" fill-rule="evenodd" d="M20.45175,20.45025 L16.89225,20.45025 L16.89225,14.88075 C16.89225,13.5525 16.86975,11.844 15.04275,11.844 C13.191,11.844 12.90825,13.2915 12.90825,14.7855 L12.90825,20.45025 L9.3525,20.45025 L9.3525,8.997 L12.765,8.997 L12.765,10.563 L12.81375,10.563 C13.2885,9.66225 14.4495,8.71275 16.18125,8.71275 C19.78575,8.71275 20.45175,11.08425 20.45175,14.169 L20.45175,20.45025 Z M5.33925,7.4325 C4.1955,7.4325 3.27375,6.50775 3.27375,5.36775 C3.27375,4.2285 4.1955,3.30375 5.33925,3.30375 C6.47775,3.30375 7.4025,4.2285 7.4025,5.36775 C7.4025,6.50775 6.47775,7.4325 5.33925,7.4325 L5.33925,7.4325 Z M7.11975,20.45025 L3.5565,20.45025 L3.5565,8.997 L7.11975,8.997 L7.11975,20.45025 Z M23.00025,0 L1.0005,0 C0.44775,0 0,0.44775 0,0.99975 L0,22.9995 C0,23.55225 0.44775,24 1.0005,24 L23.00025,24 C23.55225,24 24,23.55225 24,22.9995 L24,0.99975 C24,0.44775 23.55225,0 23.00025,0 L23.00025,0 Z"/>
</svg>

<svg xmlns="http://www.w3.org/2000/svg" width="24" height="24"><path fill="#0077B5" fill-rule="evenodd" d="M20.452 20.45h-3.56v-5.57c0-1.328-.022-3.036-1.85-3.036-1.851 0-2.134 1.447-2.134 2.942v5.664H9.352V8.997h3.413v1.566h.049c.475-.9 1.636-1.85 3.367-1.85 3.605 0 4.27 2.371 4.27 5.456v6.281ZM5.339 7.433a2.063 2.063 0 1 1 0-4.13 2.065 2.065 0 0 1 0 4.13ZM7.12 20.45H3.558V8.997H7.12V20.45ZM23 0H1a1 1 0 0 0-1 1v22a1 1 0 0 0 1 1h22a1 1 0 0 0 1-1V1a1 1 0 0 0-1-1Z"/></svg>
